X: 22
T: Les Petites Folies
%R: jig
Z: 2015 John Chambers <jc:trillian.mit.edu>
S: http://books.google.com/books?id=ipV0y26Vq8EC
B: Giovanni Andrea Gallini  "A New Collection of Forty-Four Cotillions" c.1755 #22
M: 6/8
L: 1/8
K: G
% - - - - - - - - - - - - - - - - - - - - - - - - - - - - -
% Voice 1 staff breaks arranged to fit a wider page:
V: 1
d2d |\
c2c BAB | A3 c2c | B2B AGA | G3 e2g |\
(dB).g e2g | (dB).g e2g | (dc).B (cB).A | G3 :|
|: E2F |\
(GF).G A2B | c2B c2d | e2f gfe | d3 E2F |\
GFG A2B | c2B c2d | e2d cBA | G3 :|
|: B2c |\
ded gfe | d3 gfe | ded c2B | A3 B2c |\
ded gfe | d2d gfe | ded cBA | G3 :|
|: B2c |\
dBG A2B | c2B c2d | ecA B2c | d3 g2a |\
bgd g2a | bgd g2a | bag def | g3 :|
% - - - - - - - - - - - - - - - - - - - - - - - - - - - - -
% Voice 2 preserves the original staff layout:
V: 2 clef=bass middle=d
G2g |\
fed g2G | d3 f2d | g2G d2c | BAG g2G |
g2G g2G | g2G g2G | g2G d2D | G3 :||: c2d | G3- G2g | G3- G2g |
G3- G2g | G3 c2d | G3- G2g | G3- G2g | c2G d2D | G3 :||: g3 |
G2g G2g | G2z g3 | G2g f2g | d'2d g3 | G2g G2g |
GBd G2c | B2G d2D | G3 :||: g2z | g2z d2z | d2g a2z |
f2z g2z | G2z B2d | g2G B2d | g2G B2d | g2G d2D | G3 :|
% - - - - - - - - - - Dance description - - - - - - - - - -
%%sep 1 1 400
%%center Les Petites Folies
%%begintext align
%%   Le Grand Rond - - - 2/1
%%endtext
%%begintext align
%%   Eath Gentleman leads his Partner a quarter
%% of the Course on the Right and Rigaudon, each
%% Lady Pirouette, then turns under her Partner's
%% Arm and Rigaudon - - 1/2
%%endtext
%%begintext align
%%   Another quarter of the Course in the same
%% manner - - - - 1/2
%%endtext
%%begintext align
%%   The Ladies Chass\'e on the inside and the
%% Gentlemen on the outside and Rigaudon, then the
%% Ladies Moulinet while the Gentlemen Pirouette 1/3
%%endtext
%%begintext align
%%   The Gentlemen Chass\'e on the inside and the
%% Ladies on the outside and Rigaudon, then the
%% Gentlemen Moulinet while the Ladies Pirouette 1/3
%%endtext
%%begintext align
%%   Each Gentleman leads his Partner a quarter
%% of the Course on the Right and Rigaudon, each
%% Lady Pirouette, then turns under her Partner's
%% Arm and Rigaudon - - - 1/4
%%endtext
%%begintext align
%%   Another quarter of the Course in the same
%% manner - - - - 1/4
%%endtext
%%sep 1 1 400

%%sep 2 1 500
%%sep 1 1 500

